public/assets/logo_sophie_bluel.svg

<svg width="203" height="40" viewBox="0 0 203 40" fill="none" xmlns="http://www.w3.org/2000/svg">
<path d="M0.930176 14.1239H6.65421C6.75205 14.4172 7.0386 14.6686 7.51385 14.8781C7.98911 15.0737 8.62512 15.2274 9.42187 15.3391C10.2326 15.4369 11.1691 15.4858 12.2315 15.4858C13.2799 15.4858 14.1045 15.4579 14.7056 15.402C15.3206 15.3321 15.754 15.2203 16.0056 15.0667C16.2572 14.8991 16.383 14.6756 16.383 14.3962C16.383 14.1308 16.1803 13.9283 15.7749 13.7886C15.3695 13.635 14.6497 13.5302 13.6153 13.4743C12.5809 13.4184 11.1272 13.3905 9.25412 13.3905C7.85632 13.3905 6.64721 13.3277 5.62681 13.202C4.62039 13.0622 3.7887 12.8527 3.13172 12.5734C2.48873 12.28 2.01348 11.9169 1.70595 11.4839C1.39844 11.0369 1.24468 10.506 1.24468 9.89148C1.24468 8.82989 1.60112 7.95688 2.314 7.27243C3.04087 6.57402 4.13116 6.05719 5.58488 5.72195C7.05257 5.37274 8.88371 5.19815 11.0783 5.19815C14.2932 5.19815 16.7464 5.66608 18.4378 6.60195C20.1431 7.52386 20.9958 8.85783 20.9958 10.6039H15.5653C15.4953 10.1429 15.0621 9.79367 14.2653 9.55624C13.4686 9.30481 12.3363 9.1791 10.8686 9.1791C9.41488 9.1791 8.33158 9.26291 7.61869 9.43053C6.91979 9.59815 6.57034 9.88453 6.57034 10.2896C6.57034 10.4991 6.66818 10.6667 6.86388 10.7924C7.05957 10.9181 7.39504 11.0229 7.8703 11.1067C8.35953 11.1765 9.04446 11.2255 9.92512 11.2534C10.8057 11.2813 11.924 11.2953 13.2799 11.2953C14.7755 11.2953 16.0475 11.3721 17.0959 11.5258C18.1442 11.6655 18.9899 11.882 19.6329 12.1753C20.2898 12.4686 20.7651 12.8458 21.0587 13.3067C21.3522 13.7537 21.499 14.2845 21.499 14.8991C21.499 15.9607 21.1635 16.8267 20.4926 17.4972C19.8216 18.1677 18.7592 18.6636 17.3056 18.9848C15.8518 19.306 13.9508 19.4667 11.6025 19.4667C10.2745 19.4667 9.05145 19.3899 7.9332 19.2362C6.82893 19.0826 5.84348 18.8591 4.97684 18.5658C4.11019 18.2584 3.37634 17.8883 2.77528 17.4553C2.17423 17.0083 1.71295 16.5124 1.39145 15.9677C1.08394 15.4089 0.930176 14.7943 0.930176 14.1239ZM33.0238 19.362C30.8013 19.362 28.9492 19.1803 27.4676 18.8172C25.9999 18.454 24.8956 17.8743 24.1548 17.0781C23.4279 16.282 23.0645 15.2343 23.0645 13.9353C23.0645 12.6362 23.4279 11.5886 24.1548 10.7924C24.8956 9.98224 25.9999 9.3956 27.4676 9.03243C28.9492 8.65529 30.8013 8.46672 33.0238 8.46672C35.2324 8.46672 37.0635 8.65529 38.5172 9.03243C39.9849 9.3956 41.0822 9.98224 41.8091 10.7924C42.5359 11.5886 42.8994 12.6362 42.8994 13.9353C42.8994 15.2343 42.5359 16.282 41.8091 17.0781C41.0822 17.8743 39.9849 18.454 38.5172 18.8172C37.0635 19.1803 35.2324 19.362 33.0238 19.362ZM33.0238 16.3239C34.0582 16.3239 34.9248 16.24 35.6238 16.0724C36.3226 15.8908 36.8538 15.6255 37.2173 15.2762C37.5807 14.9131 37.7624 14.466 37.7624 13.9353C37.7624 13.4045 37.5807 12.9575 37.2173 12.5943C36.8678 12.2312 36.3436 11.9588 35.6447 11.7772C34.9458 11.5956 34.0722 11.5048 33.0238 11.5048C31.9894 11.5048 31.1088 11.5956 30.382 11.7772C29.6691 11.9588 29.124 12.2312 28.7466 12.5943C28.3831 12.9436 28.2014 13.3905 28.2014 13.9353C28.2014 14.466 28.3831 14.9131 28.7466 15.2762C29.11 15.6255 29.6481 15.8908 30.361 16.0724C31.0878 16.24 31.9755 16.3239 33.0238 16.3239ZM57.3588 19.362C56.1008 19.362 54.9685 19.2362 53.9621 18.9848C52.9557 18.7194 52.096 18.3493 51.3831 17.8743C50.6703 17.3855 50.1251 16.8058 49.7477 16.1353C49.3703 15.4648 49.1816 14.7245 49.1816 13.9143C49.1816 13.1041 49.3703 12.3708 49.7477 11.7143C50.1251 11.0439 50.6703 10.4712 51.3831 9.99624C52.096 9.50735 52.9557 9.13719 53.9621 8.88576C54.9685 8.62036 56.1008 8.48767 57.3588 8.48767C58.8684 8.48767 60.2103 8.70417 61.3845 9.13719C62.5726 9.55624 63.5022 10.1708 64.1731 10.981C64.844 11.7912 65.1795 12.7689 65.1795 13.9143C65.1795 15.1156 64.844 16.1213 64.1731 16.9315C63.5022 17.7417 62.5726 18.3493 61.3845 18.7543C60.2103 19.1594 58.8684 19.362 57.3588 19.362ZM55.4717 16.1562C56.4222 16.1562 57.233 16.0724 57.9039 15.9048C58.5749 15.7372 59.085 15.4927 59.4345 15.1715C59.784 14.8362 59.9587 14.4172 59.9587 13.9143C59.9587 13.174 59.5673 12.6153 58.7845 12.2381C58.0018 11.861 56.8975 11.6724 55.4717 11.6724C54.4094 11.6724 53.431 11.7353 52.5363 11.861C51.6557 11.9867 50.9428 12.2172 50.3977 12.5524C49.8666 12.8737 49.6009 13.3277 49.6009 13.9143C49.6009 14.501 49.8666 14.962 50.3977 15.2972C50.9428 15.6184 51.6557 15.842 52.5363 15.9677C53.431 16.0934 54.4094 16.1562 55.4717 16.1562ZM44.5688 8.781H49.3074L49.6009 12.762V23.2381H44.5688V8.781ZM81.0826 19.0477V15.2343C81.0826 14.6058 80.9568 14.075 80.7052 13.642C80.4536 13.2089 80.0063 12.8877 79.3633 12.6781C78.7343 12.4546 77.8397 12.3429 76.6795 12.3429C76.0226 12.3429 75.3796 12.4058 74.7505 12.5315C74.1355 12.6432 73.5764 12.7829 73.0732 12.9505C72.584 13.1181 72.1926 13.2858 71.899 13.4534L71.8571 12.4477C71.913 12.2381 72.1017 11.9239 72.4232 11.5048C72.7587 11.0718 73.2409 10.6248 73.8699 10.1639C74.4989 9.68891 75.2887 9.29084 76.2392 8.96957C77.2037 8.63434 78.3429 8.46672 79.6569 8.46672C80.4815 8.46672 81.2783 8.54354 82.0471 8.69719C82.8159 8.85084 83.5008 9.10926 84.1019 9.47243C84.7169 9.82167 85.2062 10.2965 85.5696 10.8972C85.933 11.4979 86.1147 12.2451 86.1147 13.1391V19.0477H81.0826ZM67.0766 19.0477V4.59053H72.1087V19.0477H67.0766ZM93.5332 3.39624V6.5391H88.2075V3.39624H93.5332ZM88.3543 8.781H93.3864V19.0477H88.3543V8.781ZM109.809 15.36H114.757C114.631 16.1702 114.226 16.8756 113.541 17.4762C112.87 18.0769 111.884 18.5448 110.584 18.88C109.299 19.2013 107.657 19.362 105.657 19.362C103.547 19.362 101.723 19.1943 100.185 18.8591C98.6618 18.5239 97.4876 17.9581 96.6623 17.162C95.8379 16.3658 95.4252 15.2902 95.4252 13.9353C95.4252 12.5943 95.8236 11.5258 96.6203 10.7296C97.4314 9.91938 98.5989 9.33973 100.122 8.99053C101.646 8.64132 103.491 8.46672 105.657 8.46672C107.782 8.46672 109.523 8.65529 110.878 9.03243C112.234 9.40957 113.234 10.0241 113.876 10.8762C114.52 11.7143 114.827 12.8527 114.799 14.2915H100.541C100.612 14.6546 100.807 14.9899 101.128 15.2972C101.464 15.6045 101.975 15.856 102.659 16.0515C103.358 16.2331 104.288 16.3239 105.447 16.3239C106.65 16.3239 107.636 16.24 108.404 16.0724C109.187 15.9048 109.655 15.6674 109.809 15.36ZM105.447 11.5048C103.966 11.5048 102.834 11.6655 102.051 11.9867C101.283 12.308 100.828 12.6293 100.688 12.9505H109.913C109.816 12.5874 109.425 12.2591 108.739 11.9658C108.055 11.6584 106.957 11.5048 105.447 11.5048ZM123.494 19.0477V5.63814H136.704C139.415 5.63814 141.415 5.90354 142.7 6.43434C143.986 6.96513 144.629 7.88703 144.629 9.20005C144.629 10.0381 144.35 10.6807 143.791 11.1277C143.245 11.5746 142.455 11.8889 141.421 12.0705C140.401 12.2381 139.171 12.3429 137.731 12.3848L137.899 12.2172C138.947 12.2172 139.918 12.2451 140.813 12.301C141.708 12.3569 142.491 12.4826 143.162 12.6781C143.833 12.8737 144.357 13.174 144.734 13.5791C145.112 13.9841 145.3 14.5429 145.3 15.2553C145.3 16.1213 144.992 16.8337 144.378 17.3924C143.763 17.9512 142.889 18.3702 141.757 18.6496C140.625 18.915 139.289 19.0477 137.752 19.0477H123.494ZM128.736 15.1086H137.752C138.493 15.1086 139.024 15.0388 139.346 14.8991C139.681 14.7594 139.849 14.536 139.849 14.2286C139.849 14.0191 139.772 13.8515 139.618 13.7258C139.478 13.6 139.255 13.5093 138.947 13.4534C138.639 13.3836 138.241 13.3486 137.752 13.3486H128.736V15.1086ZM128.736 11.3372H136.871C137.612 11.3372 138.144 11.2674 138.465 11.1277C138.8 10.988 138.968 10.7645 138.968 10.4572C138.968 10.136 138.8 9.91243 138.465 9.78672C138.144 9.647 137.612 9.57719 136.871 9.57719H128.736V11.3372ZM147.18 4.59053H152.212V19.0477H147.18V4.59053ZM173.459 19.0477H168.427V8.781H173.459V19.0477ZM168.637 13.7467L168.679 14.7524C168.637 15.0458 168.497 15.388 168.259 15.7791C168.035 16.1702 167.721 16.5753 167.316 16.9943C166.911 17.4134 166.414 17.8045 165.827 18.1677C165.24 18.5169 164.569 18.8032 163.814 19.0267C163.059 19.2502 162.221 19.362 161.298 19.362C160.376 19.362 159.502 19.2641 158.677 19.0686C157.853 18.887 157.119 18.5798 156.476 18.1467C155.832 17.7137 155.329 17.134 154.966 16.4077C154.603 15.6674 154.421 14.7455 154.421 13.642V8.781H159.453V13.1181C159.453 13.8864 159.579 14.48 159.83 14.8991C160.096 15.3181 160.508 15.6115 161.068 15.7791C161.627 15.9327 162.347 16.0096 163.227 16.0096C164.052 16.0096 164.814 15.8908 165.513 15.6534C166.225 15.402 166.848 15.1017 167.379 14.7524C167.924 14.4032 168.343 14.068 168.637 13.7467ZM189.521 15.36H194.469C194.343 16.1702 193.938 16.8756 193.253 17.4762C192.582 18.0769 191.597 18.5448 190.297 18.88C189.011 19.2013 187.368 19.362 185.369 19.362C183.258 19.362 181.434 19.1943 179.897 18.8591C178.373 18.5239 177.199 17.9581 176.375 17.162C175.55 16.3658 175.137 15.2902 175.137 13.9353C175.137 12.5943 175.536 11.5258 176.333 10.7296C177.144 9.91938 178.31 9.33973 179.834 8.99053C181.358 8.64132 183.203 8.46672 185.369 8.46672C187.494 8.46672 189.234 8.65529 190.59 9.03243C191.946 9.40957 192.945 10.0241 193.589 10.8762C194.232 11.7143 194.539 12.8527 194.511 14.2915H180.253C180.323 14.6546 180.519 14.9899 180.841 15.2972C181.176 15.6045 181.686 15.856 182.371 16.0515C183.07 16.2331 184 16.3239 185.16 16.3239C186.362 16.3239 187.347 16.24 188.116 16.0724C188.899 15.9048 189.367 15.6674 189.521 15.36ZM185.16 11.5048C183.678 11.5048 182.546 11.6655 181.763 11.9867C180.994 12.308 180.54 12.6293 180.4 12.9505H189.626C189.528 12.5874 189.137 12.2591 188.452 11.9658C187.766 11.6584 186.669 11.5048 185.16 11.5048ZM196.506 4.59053H201.538V19.0477H196.506V4.59053Z" fill="#B1663C"/>
<path d="M6.09814 37.1428H5.28805L4.62091 35.4H1.77128L1.10415 37.1428H0.303589L2.75293 30.8571H3.65833L6.09814 37.1428ZM2.04767 34.6857H4.34452L3.19133 31.5905L2.04767 34.6857ZM10.2359 30.8571C10.8776 30.8571 11.3923 31.0222 11.7799 31.3524C12.1674 31.6826 12.3612 32.1302 12.3612 32.6952C12.3612 33.2603 12.1642 33.7016 11.7703 34.019C11.3827 34.3302 10.8681 34.4857 10.2264 34.4857L10.1597 34.5333H8.61569V37.1428H7.85325V30.8571H10.2359ZM10.2264 33.819C10.6775 33.819 11.011 33.7269 11.2271 33.5428C11.4494 33.3524 11.5607 33.0698 11.5607 32.6952C11.5607 32.3207 11.4494 32.0412 11.2271 31.8571C11.011 31.6667 10.6775 31.5714 10.2264 31.5714H8.61569V33.819H10.2264ZM10.6648 33.9714L12.7424 37.1428H11.837L10.0262 34.3905L10.6648 33.9714ZM19.6824 35.5333C19.5489 35.8888 19.3583 36.1968 19.1105 36.4571C18.8628 36.7111 18.5704 36.9047 18.2337 37.0381C17.9033 37.1714 17.5412 37.2381 17.1473 37.2381C16.55 37.2381 16.0322 37.1079 15.5938 36.8476C15.1617 36.5809 14.825 36.2064 14.5835 35.7238C14.3484 35.2412 14.2309 34.6667 14.2309 34C14.2309 33.3333 14.3484 32.7587 14.5835 32.2762C14.825 31.7936 15.1617 31.4222 15.5938 31.1619C16.0322 30.8952 16.5436 30.7619 17.1282 30.7619C17.5348 30.7619 17.8969 30.819 18.2147 30.9333C18.5323 31.0412 18.8023 31.2064 19.0248 31.4286C19.2535 31.6445 19.4346 31.9111 19.568 32.2286L18.8151 32.5809C18.6753 32.219 18.472 31.946 18.2051 31.7619C17.9446 31.5714 17.6047 31.4762 17.1854 31.4762C16.7597 31.4762 16.3848 31.5778 16.0608 31.7809C15.7367 31.9778 15.4826 32.2635 15.2983 32.6381C15.1204 33.0127 15.0315 33.4667 15.0315 34C15.0315 34.5269 15.1173 34.9809 15.2888 35.3619C15.4604 35.7365 15.7049 36.0254 16.0227 36.2286C16.3403 36.4254 16.7151 36.5238 17.1473 36.5238C17.5666 36.5238 17.9319 36.419 18.2433 36.2095C18.5545 35.9936 18.7801 35.673 18.9199 35.2476L19.6824 35.5333ZM26.559 30.8571V37.1428H25.7966V30.8571H26.559ZM22.3847 30.8571V37.1428H21.6222V30.8571H22.3847ZM26.1492 33.6V34.3143H22.0225V33.6H26.1492ZM29.8602 30.8571V37.1428H29.0978V30.8571H29.8602ZM36.8165 30.8571V31.5714H34.6245V37.1428H33.8621V31.5714H31.67V30.8571H36.8165ZM38.6227 37.1428V30.8571H43.0353V31.5714H39.3851V33.6H42.2252V34.3143H39.3851V36.4286H43.1782V37.1428H38.6227ZM50.1074 35.5333C49.974 35.8888 49.7834 36.1968 49.5356 36.4571C49.2878 36.7111 48.9955 36.9047 48.6588 37.0381C48.3283 37.1714 47.9662 37.2381 47.5723 37.2381C46.975 37.2381 46.4572 37.1079 46.0188 36.8476C45.5867 36.5809 45.25 36.2064 45.0086 35.7238C44.7735 35.2412 44.6559 34.6667 44.6559 34C44.6559 33.3333 44.7735 32.7587 45.0086 32.2762C45.25 31.7936 45.5867 31.4222 46.0188 31.1619C46.4572 30.8952 46.9686 30.7619 47.5532 30.7619C47.9598 30.7619 48.322 30.819 48.6397 30.9333C48.9574 31.0412 49.2274 31.2064 49.4498 31.4286C49.6785 31.6445 49.8596 31.9111 49.993 32.2286L49.2401 32.5809C49.1003 32.219 48.897 31.946 48.6302 31.7619C48.3696 31.5714 48.0297 31.4762 47.6104 31.4762C47.1847 31.4762 46.8098 31.5778 46.4858 31.7809C46.1618 31.9778 45.9076 32.2635 45.7234 32.6381C45.5454 33.0127 45.4565 33.4667 45.4565 34C45.4565 34.5269 45.5423 34.9809 45.7138 35.3619C45.8854 35.7365 46.1299 36.0254 46.4477 36.2286C46.7653 36.4254 47.1402 36.5238 47.5723 36.5238C47.9916 36.5238 48.3569 36.419 48.6683 36.2095C48.9796 35.9936 49.2051 35.673 49.345 35.2476L50.1074 35.5333ZM56.4695 30.8571V31.5714H54.2775V37.1428H53.515V31.5714H51.323V30.8571H56.4695ZM58.2756 37.1428V30.8571H62.6883V31.5714H59.0381V33.6H61.8782V34.3143H59.0381V36.4286H62.8312V37.1428H58.2756ZM70.5845 30.8571C71.5693 30.8571 72.3412 31.1302 72.9004 31.6762C73.4658 32.2159 73.7486 32.9905 73.7486 34C73.7486 35.0095 73.4658 35.7873 72.9004 36.3333C72.3412 36.873 71.5693 37.1428 70.5845 37.1428H68.5545V30.8571H70.5845ZM70.6607 36.4286C71.3787 36.4286 71.9378 36.2159 72.3381 35.7905C72.7447 35.3588 72.9481 34.7619 72.9481 34C72.9481 33.2381 72.7447 32.6445 72.3381 32.219C71.9378 31.7873 71.3787 31.5714 70.6607 31.5714H69.3169V36.4286H70.6607ZM76.0257 30.4762C76.1782 30.4762 76.3054 30.5174 76.407 30.6C76.515 30.6762 76.5976 30.7841 76.6548 30.9238C76.7119 31.0571 76.7405 31.2159 76.7405 31.4C76.7405 31.6095 76.7024 31.8159 76.6262 32.019C76.5563 32.2222 76.4451 32.4095 76.2926 32.5809C76.1401 32.7524 75.9432 32.8952 75.7017 33.0095L75.3014 32.6381C75.473 32.5809 75.6223 32.5016 75.7494 32.4C75.8828 32.2984 75.9909 32.1841 76.0734 32.0571C76.156 31.9302 76.2101 31.8 76.2354 31.6667L76.1973 31.6476C76.1719 31.6667 76.1401 31.6826 76.102 31.6952C76.0639 31.7079 76.0067 31.7143 75.9304 31.7143C75.8542 31.7143 75.7748 31.6921 75.6922 31.6476C75.6159 31.6031 75.5492 31.5397 75.492 31.4571C75.4348 31.3683 75.4063 31.254 75.4063 31.1143C75.4063 31 75.4348 30.8952 75.492 30.8C75.5492 30.6984 75.6223 30.619 75.7112 30.5619C75.8065 30.5047 75.9114 30.4762 76.0257 30.4762ZM79.4747 30.8571V37.1428H78.7123V30.8571H79.4747ZM86.9457 30.8571V37.1428H86.0022L83.3718 32.9333L82.7046 31.7524H82.6951L82.7332 32.7047V37.1428H82.0089V30.8571H82.9524L85.5733 35.0476L86.25 36.2571H86.2595L86.2214 35.2952V30.8571H86.9457ZM93.9065 30.8571V31.5714H91.7145V37.1428H90.952V31.5714H88.76V30.8571H93.9065ZM95.713 37.1428V30.8571H100.126V31.5714H96.4755V33.6H99.3156V34.3143H96.4755V36.4286H100.269V37.1428H95.713ZM98.1433 28.5524H98.9439L98.1242 30.0667H97.5143L98.1433 28.5524ZM104.65 30.8571C105.291 30.8571 105.806 31.0222 106.194 31.3524C106.581 31.6826 106.775 32.1302 106.775 32.6952C106.775 33.2603 106.578 33.7016 106.184 34.019C105.796 34.3302 105.282 34.4857 104.64 34.4857L104.574 34.5333H103.03V37.1428H102.267V30.8571H104.65ZM104.64 33.819C105.091 33.819 105.425 33.7269 105.641 33.5428C105.863 33.3524 105.975 33.0698 105.975 32.6952C105.975 32.3207 105.863 32.0412 105.641 31.8571C105.425 31.6667 105.091 31.5714 104.64 31.5714H103.03V33.819H104.64ZM105.079 33.9714L107.156 37.1428H106.251L104.44 34.3905L105.079 33.9714ZM109.844 30.8571V37.1428H109.081V30.8571H109.844ZM112.378 37.1428V30.8571H116.791V31.5714H113.141V33.6H115.981V34.3143H113.141V36.4286H116.934V37.1428H112.378ZM123.745 30.8571V34.8C123.745 35.6064 123.533 36.2159 123.107 36.6286C122.681 37.0349 122.071 37.2381 121.277 37.2381C120.489 37.2381 119.879 37.0349 119.447 36.6286C119.021 36.2159 118.808 35.6064 118.808 34.8V30.8571H119.571V34.6095C119.571 35.2635 119.707 35.746 119.981 36.0571C120.26 36.3683 120.693 36.5238 121.277 36.5238C121.861 36.5238 122.29 36.3683 122.563 36.0571C122.843 35.746 122.983 35.2635 122.983 34.6095V30.8571H123.745ZM128.539 30.8571C129.18 30.8571 129.695 31.0222 130.083 31.3524C130.471 31.6826 130.664 32.1302 130.664 32.6952C130.664 33.2603 130.467 33.7016 130.073 34.019C129.686 34.3302 129.171 34.4857 128.529 34.4857L128.463 34.5333H126.919V37.1428H126.156V30.8571H128.539ZM128.529 33.819C128.98 33.819 129.314 33.7269 129.53 33.5428C129.752 33.3524 129.864 33.0698 129.864 32.6952C129.864 32.3207 129.752 32.0412 129.53 31.8571C129.314 31.6667 128.98 31.5714 128.529 31.5714H126.919V33.819H128.529ZM128.968 33.9714L131.046 37.1428H130.14L128.329 34.3905L128.968 33.9714Z" fill="#93532F"/>
</svg>

<svg xmlns="http://www.w3.org/2000/svg" width="203" height="40" fill="none"><path fill="#B1663C" d="M.93 14.124h5.724q.147.44.86.754.713.294 1.908.461 1.215.147 2.81.147 1.572 0 2.474-.084.922-.105 1.3-.335.377-.252.377-.67 0-.4-.608-.608-.607-.231-2.16-.315-1.551-.084-4.36-.084-2.098 0-3.628-.188-1.51-.21-2.495-.629-.965-.44-1.426-1.09-.461-.67-.461-1.592 0-1.592 1.069-2.619 1.09-1.047 3.27-1.55 2.203-.524 5.494-.524 4.822 0 7.36 1.404 2.558 1.383 2.558 4.002h-5.43q-.105-.691-1.3-1.048-1.196-.377-3.397-.377-2.18 0-3.25.252-1.05.251-1.049.859 0 .315.294.502.294.188 1.006.315.734.105 2.055.146 1.32.042 3.355.042 2.243 0 3.816.23 1.572.21 2.537.65.985.44 1.426 1.132.44.67.44 1.592 0 1.593-1.006 2.598-1.007 1.006-3.187 1.488t-5.704.482a27 27 0 0 1-3.669-.23q-1.656-.231-2.956-.671-1.3-.462-2.202-1.11-.9-.672-1.384-1.488a3.76 3.76 0 0 1-.46-1.844m32.094 5.238q-3.334 0-5.556-.545-2.202-.545-3.313-1.739-1.09-1.194-1.09-3.143t1.09-3.143q1.11-1.215 3.313-1.76 2.222-.565 5.556-.565 3.313 0 5.493.565 2.202.545 3.292 1.76 1.09 1.195 1.09 3.143 0 1.95-1.09 3.143-1.09 1.194-3.292 1.74-2.181.544-5.493.544m0-3.038q1.55 0 2.6-.252 1.048-.271 1.593-.796.545-.545.545-1.34 0-.797-.545-1.342-.524-.544-1.572-.817-1.05-.272-2.621-.272-1.552 0-2.642.272-1.07.273-1.635.817-.546.525-.546 1.341 0 .797.546 1.341.544.525 1.614.796 1.09.252 2.663.252m24.335 3.038q-1.887 0-3.397-.377-1.51-.399-2.579-1.11-1.07-.735-1.635-1.74a4.45 4.45 0 0 1-.566-2.22q0-1.216.566-2.2.565-1.007 1.635-1.719 1.07-.733 2.58-1.11 1.508-.399 3.396-.398 2.264 0 4.026.65 1.782.627 2.788 1.843 1.007 1.215 1.007 2.933 0 1.802-1.007 3.018t-2.788 1.822q-1.763.608-4.026.608m-1.887-3.206q1.425 0 2.432-.251 1.006-.252 1.53-.733a1.67 1.67 0 0 0 .525-1.258q0-1.11-1.175-1.676-1.173-.566-3.312-.566-1.594 0-2.936.189-1.32.189-2.138.691-.797.483-.797 1.362t.797 1.383q.818.482 2.138.67 1.342.19 2.936.19M44.569 8.781h4.738l.294 3.981v10.476h-5.032zm36.514 10.267v-3.814q0-.942-.378-1.592-.377-.65-1.342-.964-.943-.335-2.683-.335-.985 0-1.93.188-.922.168-1.677.42-.733.251-1.174.502l-.042-1.005q.084-.315.566-.943.504-.65 1.447-1.341.944-.713 2.37-1.194 1.446-.503 3.417-.503 1.237 0 2.39.23a6.3 6.3 0 0 1 2.055.775q.922.525 1.468 1.425t.545 2.242v5.909zm-14.006 0V4.59h5.032v14.457zM93.533 3.396V6.54h-5.326V3.396zm-5.179 5.385h5.032v10.267h-5.032zm21.455 6.579h4.948q-.189 1.215-1.216 2.116-1.007.9-2.957 1.404-1.927.482-4.927.482-3.165 0-5.472-.503-2.284-.502-3.523-1.697-1.236-1.194-1.237-3.227 0-2.011 1.195-3.205 1.217-1.215 3.502-1.74 2.286-.523 5.535-.523 3.188 0 5.221.565 2.034.566 2.998 1.844.966 1.258.923 3.415h-14.258q.106.546.587 1.006.504.46 1.531.755 1.049.272 2.788.272 1.805 0 2.957-.252 1.174-.251 1.405-.712m-4.362-3.855q-2.221 0-3.396.482-1.152.482-1.363.963h9.225q-.145-.544-1.174-.984-1.026-.462-3.292-.461m18.047 7.543V5.638h13.21q4.068 0 5.996.796 1.929.797 1.929 2.766 0 1.257-.838 1.928-.819.67-2.37.942-1.53.252-3.69.315l.168-.168q1.572 0 2.914.084t2.349.377q1.006.294 1.572.901.566.608.566 1.676 0 1.3-.922 2.137-.923.839-2.621 1.258-1.699.398-4.005.398zm5.242-3.94h9.016q1.111 0 1.594-.209.503-.21.503-.67a.62.62 0 0 0-.231-.503q-.21-.189-.671-.273-.462-.105-1.195-.104h-9.016zm0-3.77h8.135q1.112 0 1.594-.21.503-.21.503-.67 0-.483-.503-.671-.482-.21-1.594-.21h-8.135zM147.18 4.59h5.032v14.457h-5.032zm26.279 14.457h-5.032V8.78h5.032zm-4.822-5.301.042 1.005q-.063.44-.42 1.027a6.3 6.3 0 0 1-.943 1.215q-.608.629-1.489 1.174a8.8 8.8 0 0 1-2.013.859q-1.132.335-2.516.335a11.3 11.3 0 0 1-2.621-.293 6.3 6.3 0 0 1-2.201-.922 4.45 4.45 0 0 1-1.51-1.74q-.545-1.11-.545-2.765V8.781h5.032v4.337q0 1.152.377 1.781.398.63 1.238.88.839.23 2.159.23 1.237 0 2.286-.356a8.6 8.6 0 0 0 1.866-.9q.817-.525 1.258-1.006m20.884 1.613h4.948q-.189 1.215-1.216 2.116-1.006.9-2.956 1.404-1.93.482-4.928.482-3.167 0-5.472-.503-2.286-.502-3.522-1.697-1.238-1.194-1.238-3.227 0-2.011 1.196-3.205 1.216-1.215 3.501-1.74 2.286-.523 5.535-.523 3.187 0 5.221.565 2.033.566 2.999 1.844.964 1.258.922 3.415h-14.258q.105.546.588 1.006.502.46 1.53.755 1.049.272 2.789.272 1.803 0 2.956-.252 1.174-.251 1.405-.712m-4.361-3.855q-2.223 0-3.397.482-1.153.482-1.363.963h9.226q-.147-.544-1.174-.984-1.029-.462-3.292-.461m11.346-6.914h5.032v14.457h-5.032z"/><path fill="#93532F" d="M6.098 37.143h-.81L4.621 35.4H1.77l-.667 1.743h-.8l2.449-6.286h.905zm-4.05-2.457h2.297L3.19 31.59zm8.188-3.829q.963 0 1.544.495.58.495.581 1.343 0 .848-.59 1.324-.582.467-1.545.467l-.066.047H8.616v2.61h-.763v-6.286zm-.01 2.962q.677 0 1.001-.276.334-.285.334-.848t-.334-.838q-.324-.286-1-.286H8.615v2.248zm.439.152 2.077 3.172h-.905l-1.81-2.752zm9.017 1.562a2.7 2.7 0 0 1-.572.924q-.371.381-.876.581-.495.2-1.087.2-.896 0-1.553-.39a2.7 2.7 0 0 1-1.01-1.124Q14.23 35 14.23 34t.353-1.724a2.65 2.65 0 0 1 1.01-1.114q.658-.4 1.534-.4.61 0 1.087.171.476.162.81.496.343.323.543.8l-.753.352q-.21-.543-.61-.82-.39-.285-1.02-.285-.638 0-1.124.305a2 2 0 0 0-.763.857q-.267.562-.267 1.362 0 .79.258 1.362.257.561.734.867.476.294 1.124.295.63 0 1.096-.315.468-.323.677-.961zm6.877-4.676v6.286h-.762v-6.286zm-4.174 0v6.286h-.763v-6.286zm3.764 2.743v.714h-4.126V33.6zm3.711-2.743v6.286h-.762v-6.286zm6.956 0v.714h-2.192v5.572h-.762V31.57H31.67v-.714zm1.807 6.286v-6.286h4.412v.714h-3.65V33.6h2.84v.714h-2.84v2.115h3.793v.714zm11.484-1.61a2.7 2.7 0 0 1-.571.924q-.372.381-.877.581-.495.2-1.087.2-.896 0-1.553-.39a2.7 2.7 0 0 1-1.01-1.124Q44.656 35 44.656 34t.353-1.724a2.65 2.65 0 0 1 1.01-1.114q.658-.4 1.534-.4.61 0 1.087.171.475.162.81.496.343.323.543.8l-.753.352q-.21-.543-.61-.82-.39-.285-1.02-.285-.638 0-1.124.305a2 2 0 0 0-.763.857q-.267.562-.267 1.362 0 .79.258 1.362.257.561.734.867.476.294 1.124.295.63 0 1.096-.315.468-.323.677-.961zm6.362-4.676v.714h-2.191v5.572h-.763V31.57h-2.192v-.714zm1.807 6.286v-6.286h4.412v.714h-3.65V33.6h2.84v.714h-2.84v2.115h3.793v.714zm12.309-6.286q1.476 0 2.315.82.849.808.849 2.323t-.849 2.333q-.838.81-2.315.81h-2.03v-6.286zm.076 5.572q1.077 0 1.677-.639.61-.647.61-1.79 0-1.142-.61-1.781-.6-.648-1.677-.648h-1.344v4.858zm5.365-5.953q.229 0 .381.124.162.114.248.324.085.2.085.476 0 .315-.114.619-.104.304-.333.562-.23.257-.591.428l-.4-.37q.257-.087.447-.239.201-.153.324-.343.124-.19.162-.39l-.038-.02a.3.3 0 0 1-.095.048.6.6 0 0 1-.172.02.5.5 0 0 1-.238-.067.6.6 0 0 1-.2-.19.62.62 0 0 1-.086-.344q0-.171.086-.314a.66.66 0 0 1 .22-.238.6.6 0 0 1 .314-.086m3.449.381v6.286h-.763v-6.286zm7.47 0v6.286h-.943l-2.63-4.21-.667-1.18h-.01l.038.952v4.438h-.724v-6.286h.943l2.621 4.19.677 1.21h.01l-.039-.962v-4.438zm6.962 0v.714h-2.192v5.572h-.763V31.57H88.76v-.714zm1.806 6.286v-6.286h4.413v.714h-3.65V33.6h2.84v.714h-2.84v2.115h3.793v.714zm2.43-8.59h.8l-.819 1.514h-.61zm6.507 2.304q.962 0 1.544.495.58.495.581 1.343 0 .848-.591 1.324-.582.467-1.544.467l-.066.047h-1.544v2.61h-.763v-6.286zm-.01 2.962q.677 0 1.001-.276.333-.285.334-.848 0-.562-.334-.838-.324-.286-1.001-.286h-1.61v2.248zm.439.152 2.077 3.172h-.905l-1.811-2.752zm4.765-3.114v6.286h-.763v-6.286zm2.534 6.286v-6.286h4.413v.714h-3.65V33.6h2.84v.714h-2.84v2.115h3.793v.714zm11.367-6.286V34.8q0 1.21-.638 1.829-.639.61-1.83.61-1.182 0-1.83-.61-.639-.62-.639-1.829v-3.943h.763v3.752q0 .981.41 1.448.42.467 1.296.467t1.286-.467q.42-.467.42-1.448v-3.752zm4.794 0q.962 0 1.544.495t.581 1.343q0 .848-.591 1.324-.58.467-1.544.467l-.066.047h-1.544v2.61h-.763v-6.286zm-.01 2.962q.677 0 1.001-.276.333-.285.334-.848 0-.562-.334-.838-.324-.286-1.001-.286h-1.61v2.248zm.439.152 2.078 3.172h-.906l-1.811-2.752z"/></svg>
